!!!!SEGMENT: pl-cz--iii-554--001-008_raszek-waclaw--missa-ex-c-et-incarnatus.krn
!!!cenid: 17xx:1029
!!!COM: Raszek, Wacław
!!!COM-rismID:
!!!CDT: <1848->1848
!!!CNT:
!!!OPR: Missa ex C
!!!OTL: Et incarnatus
!!!OMV: 008
!!!PDT: 1780
!!!AGN: Sacred; Mass
!!!SMS-siglum: PL-CZ
!!!SMS-shelfmark: III-554
!!!SMS-shelfwork: 001-008 M
!!!SMS-variant:
!!!SMS-altvar:
!!!NIFC-rismSourceID: 300001043
!!!NIFC-islandoraID: pl-cz:38848
!!!URL-pdf-islandora: https://repozytorium.nifc.pl/islandora/object/pl-cz%3A38848/datastream/PDF/view
!!!URL-scan:
!!!ONB-nifc: UWAGA: części Mszy: Kyrie, Gloria, Laudamus, Qui tollis, Quoniam, Cum sancto spiritu, Credo, Et incarnatus, Et resurrexit, Sanctus, Benedictus, Agnus Dei, Dona nobis
!!!AIN: 1 alto 1 bass 2 clrno 2 oboe 1 soprn 1 tenor 1 viola 1 viole 2 violn
!!!key:
**kern	**dynam	**kern	**dynam	**kern	**dynam	**kern	**dynam	**kern	**text	**dynam	**kern	**text	**dynam	**kern	**text	**dynam	**kern	**text	**dynam	**kern	**kern	**kern	**dynam	**kern	**dynam
*part12	*part12	*part11	*part11	*part10	*part10	*part9	*part9	*part8	*part8	*part8	*part7	*part7	*part7	*part6	*part6	*part6	*part5	*part5	*part5	*part4	*part3	*part2	*part2	*part1	*part1
*staff12	*	*staff11	*	*staff10	*	*staff9	*	*staff8	*staff8	*	*staff7	*staff7	*	*staff6	*staff6	*	*staff5	*staff5	*	*staff4	*staff3	*staff2	*	*staff1	*
*group4	*group4	*group4	*group4	*group4	*group4	*group4	*group4	*group3	*group3	*group3	*group3	*group3	*group3	*group3	*group3	*group3	*group3	*group3	*group3	*group2	*group2	*group1	*group1	*group1	*group1
*I"Violone.	*	*I"Viola di Alto. oblig.	*	*I"Violino 2do.	*	*I"Violino 1mo.	*	*I"Basſo.	*	*	*I"Tenore.	*	*	*I"Alto.	*	*	*I"Canto.	*	*	*I"Clarino 2do. Ex C.	*I"Clarino 1mo. Ex C.	*I"Oboe Secundo.	*	*I"Oboe Primo.	*
*I'vlne	*	*I'a-vla	*	*I'vl 2	*	*I'vl 1	*	*I'B	*	*	*I'T	*	*	*I'A	*	*	*I'S	*	*	*I'clno 2	*I'clno 1	*I'ob 2	*	*I'ob 1	*
*Iviole	*	*Iviola	*	*Ivioln	*	*Ivioln	*	*Ibass	*	*	*Itenor	*	*	*Ialto	*	*	*Isoprn	*	*	*Iclrno	*Iclrno	*Ioboe	*	*Ioboe	*
*ICstr	*	*ICstr	*	*ICstr	*	*ICstr	*	*ICvox	*	*	*ICvox	*	*	*ICvox	*	*	*ICvox	*	*	*ICbras	*ICbras	*ICww	*	*ICww	*
*clefF4	*	*clefC3	*	*clefG2	*	*clefG2	*	*clefF4	*	*	*clefC4	*	*	*clefC3	*	*	*clefC1	*	*	*clefG2	*clefG2	*clefG2	*	*clefG2	*
*Trd0c0	*	*	*	*	*	*	*	*	*	*	*	*	*	*	*	*	*	*	*	*	*	*	*	*	*
*k[b-e-]	*	*k[b-e-]	*	*k[b-e-a-]	*	*k[b-e-a-]	*	*k[b-e-]	*	*	*k[b-e-]	*	*	*k[b-e-]	*	*	*k[b-e-]	*	*	*k[b-e-]	*k[b-e-]	*k[b-e-]	*	*k[b-e-]	*
*B-:	*	*B-:	*	*	*	*	*	*B-:	*	*	*B-:	*	*	*B-:	*	*	*B-:	*	*	*B-:	*B-:	*B-:	*	*B-:	*
*M3/4	*	*M3/4	*	*M3/4	*	*M3/4	*	*M3/4	*	*	*M3/4	*	*	*M3/4	*	*	*M3/4	*	*	*M3/4	*M3/4	*M3/4	*	*M3/4	*
=1	=1	=1	=1	=1	=1	=1	=1	=1	=1	=1	=1	=1	=1	=1	=1	=1	=1	=1	=1	=1	=1	=1	=1	=1	=1
!LO:TX:a:i:t=Ada&colon;	!	!LO:TX:a:i:t=Et incarnatus	!	!LO:TX:a:i:t=ada&colon;	!	!LO:TX:a:i:t=Ada&colon;	!	!	!	!	!	!	!	!	!	!	!	!	!	!	!	!LO:TX:a:i:t=Adag.	!	!LO:TX:a:i:t=Ada&colon;	!
!LO:TX:a:i:t=Et Incarnatus.	!	!LO:TX:a:i:t=Ada&colon;	!LO:DY:a	!LO:TX:a:i:t=Et incarnatus	!LO:DY:a	!LO:TX:a:i:t=Et Incarnatus	!LO:DY:a	!LO:TX:a:i:t=Ada&colon;	!	!	!LO:TX:a:i:t=Ada.	!	!	!LO:TX:a:i:t=Ada&colon;	!	!	!LO:TX:a:i:t=Ada&colon;	!	!LO:DY:a	!LO:TX:a:i:t=Et Incarnatus Tacet.	!LO:TX:a:i:t=Et Incarnatus \nTacet.	!LO:TX:a:i:t=Et Incarnatus	!	!LO:TX:a:i:t=Et incarnatus.	!LO:DY:a
*	*	*	*	*	*	*	*	*	*	*	*	*	*	*	*	*	*all\right	*	*	*	*	*	*	*	*
*	*	*	*	*	*	*	*	*	*	*	*	*	*	*	*	*	*2\right	*	*	*	*	*	*	*	*
!	!	!	!	!	!	!	!	!	!	!	!	!	!	!	!	!	!LO:TX:a:t=P:problem=w źródle znaki przykluczowe ee- b-	!	!	!	!	!	!	!	!
!	!	!	!LO:DY:a:t=pia&colon;	!	!LO:DY:a:t=pia&colon;	!	!LO:DY:a:t=p.	!	!	!	!	!	!	!	!	!	!	!	!LO:DY:t=p&colon;	!	!	!	!	!	!LO:DY:a:t=pia&colon;
1.r	.	1.r	p	1.r	p	4g/	p	1.r	.	.	1.r	.	.	1.r	.	.	4g\	Et	p	2.ryy	2.ryy	1.r	.	1.r	p
.	.	.	.	.	.	4an/	.	.	.	.	.	.	.	.	.	.	4an\	in-	.	.	.	.	.	.	.
.	.	.	.	.	.	4bn/	.	.	.	.	.	.	.	.	.	.	4bn\	-car-	.	.	.	.	.	.	.
=2	=2	=2	=2	=2	=2	=2	=2	=2	=2	=2	=2	=2	=2	=2	=2	=2	=2	=2	=2	=2	=2	=2	=2	=2	=2
*	*	*	*	*	*	*all\right	*	*	*	*	*	*	*	*	*	*	*	*	*	*	*	*	*	*	*
*	*	*	*	*	*	*2\right	*	*	*	*	*	*	*	*	*	*	*	*	*	*	*	*	*	*	*
!	!	!	!	!	!	!	!	!	!	!	!	!	!	!	!	!	!	!	!	!	!	!	!	!LO:TX:a:i:t=Semper.	!
.	.	.	.	.	.	4cc\	.	.	.	.	.	.	.	.	.	.	(>4cc\	-na-	.	2.ryy	2.ryy	.	.	.	.
.	.	.	.	.	.	4dd\	.	.	.	.	.	.	.	.	.	.	4dd\)	.	.	.	.	.	.	.	.
.	.	.	.	.	.	4ee-\	.	.	.	.	.	.	.	.	.	.	4ee-\	-tus	.	.	.	.	.	.	.
=3	=3	=3	=3	=3	=3	=3	=3	=3	=3	=3	=3	=3	=3	=3	=3	=3	=3	=3	=3	=3	=3	=3	=3	=3	=3
*	*	*all\right	*	*all\right	*	*	*	*all\right	*	*	*all\right	*	*	*all\right	*	*	*	*	*	*	*	*all\right	*	*all\right	*
*	*	*2\right	*	*2\right	*	*	*	*2\right	*	*	*2\right	*	*	*2\right	*	*	*	*	*	*	*	*2\right	*	*2\right	*
!	!LO:DY:a:t=p&colon;:rj	!	!	!	!	!	!	!	!	!LO:DY:a:t=p&colon;	!	!	!LO:DY:a:t=p&colon;:rj	!	!	!LO:DY:a:t=p.:rj	!	!	!	!	!	!	!LO:DY:a:t=pia&colon;	!	!
4C/	p	4c/	.	8r	.	8r	.	4C/	Et	p	4e-\	Et	p	4g\	Et	p	8r	.	.	2.ryy	2.ryy	4cc\	p	4ee-\	.
.	.	.	.	8g'/	.	8ee-\	.	.	.	.	.	.	.	.	.	.	8ee-\	et	.	.	.	.	.	.	.
4r	.	4r	.	(<8f/L	.	8dd\L	.	4E-X/	in-	.	8f\L	in-	.	4g\	in-	.	8dd\L	in-	.	.	.	4r	.	4r	.
.	.	.	.	8e-/)	.	8cc\	.	.	.	.	8e-\J	.	.	.	.	.	8cc\J	.	.	.	.	.	.	.	.
4C/	.	4c/	.	(<8d/	.	8bn\	.	4C/	-car-	.	8d\L	-car-	.	4g\	-car-	.	8bn\L	-car-	.	.	.	4cc\	.	4ee-\	.
.	.	.	.	8e-/J)	.	8cc\J	.	.	.	.	8e-\J	.	.	.	.	.	8cc\J	.	.	.	.	.	.	.	.
=4	=4	=4	=4	=4	=4	=4	=4	=4	=4	=4	=4	=4	=4	=4	=4	=4	=4	=4	=4	=4	=4	=4	=4	=4	=4
*all\right	*	*	*	*	*	*	*	*	*	*	*	*	*	*	*	*	*	*	*	*	*	*	*	*	*
*2\right	*	*	*	*	*	*	*	*	*	*	*	*	*	*	*	*	*	*	*	*	*	*	*	*	*
4G\	.	4g\	.	4e-/	.	4cc\	.	4G\	-na-	.	4e-\	-na-	.	4g\	-na-	.	4cc\	-na-	.	2.ryy	2.ryy	4cc\	.	4ee-\	.
8G\L	.	8g\L	.	4d/	.	4bn\	.	4GG/	-tus	.	4d\	-tus	.	4g\	-tus	.	4bn\	-tus	.	.	.	4bn\	.	4dd\	.
8F\	.	8f\	.	.	.	.	.	.	.	.	.	.	.	.	.	.	.	.	.	.	.	.	.	.	.
8E-\	.	8e-\	.	4r	.	4r	.	4r	.	.	4r	.	.	4r	.	.	4r	.	.	.	.	4r	.	4r	.
8D\J	.	8d\J	.	.	.	.	.	.	.	.	.	.	.	.	.	.	.	.	.	.	.	.	.	.	.
=5	=5	=5	=5	=5	=5	=5	=5	=5	=5	=5	=5	=5	=5	=5	=5	=5	=5	=5	=5	=5	=5	=5	=5	=5	=5
*	*	*tremolo	*	*	*	*	*	*	*	*	*	*	*	*	*	*	*	*	*	*	*	*	*	*	*
!LO:TX:t=P:problem=mixed beam	!	!	!	!	!	!	!	!	!	!	!	!	!	!	!	!	!	!	!	!	!	!	!	!	!
8C/L	.	8c\L	.	8r	.	8r	.	2c\	eſt	.	2c\	Eſt	.	2g\	Eſt	.	2ee-\	eſt	.	2.ryy	2.ryy	2cc\	.	2ee-\	.
8c\	.	8c\	.	8g/L	.	8ee-\L	.	.	.	.	.	.	.	.	.	.	.	.	.	.	.	.	.	.	.
8c\	.	8c\	.	8g/	.	8ee-\	.	.	.	.	.	.	.	.	.	.	.	.	.	.	.	.	.	.	.
8c\	.	8c\	.	8g/	.	8ee-\	.	.	.	.	.	.	.	.	.	.	.	.	.	.	.	.	.	.	.
!	!	!	!	!	!	!	!	!	!	!	!LO:N:vis=4.	!	!	!	!	!	!	!	!	!	!	!	!	!	!
8B-\	.	8c\	.	8g/	.	8een\	.	4B-\	de	.	4c\	de	.	4g\	de	.	4een\	de	.	.	.	4cc\	.	4een\	.
8B-\J	.	8c\J	.	8g/J	.	8ee\J	.	.	.	.	.	.	.	.	.	.	.	.	.	.	.	.	.	.	.
=6	=6	=6	=6	=6	=6	=6	=6	=6	=6	=6	=6	=6	=6	=6	=6	=6	=6	=6	=6	=6	=6	=6	=6	=6	=6
8r	.	8r	.	8r	.	8r	.	4.A-X\	Spi-	.	4.c\	ſpi-	.	4.f\	spi-	.	4.ff\	spi-	.	2.ryy	2.ryy	2cc\	.	2ff\	.
8A-X\L	.	8a-X\	.	8cc\L	.	8ff\L	.	.	.	.	.	.	.	.	.	.	.	.	.	.	.	.	.	.	.
8A-\	.	8f\L	.	8cc\	.	8ff\	.	.	.	.	.	.	.	.	.	.	.	.	.	.	.	.	.	.	.
8A-\	.	8f\	.	8cc\	.	8ff\	.	8A-\	-ri-	.	8c\	-ri-	.	8f\	-ri-	.	8ff\	-ri-	.	.	.	.	.	.	.
8An\	.	8f\	.	8cc\	.	8ee-X\	.	4An\	-tu	.	4c\	-tu	.	4f\	-tu	.	4ee-X\	-tu	.	.	.	4cc\	.	4ee-X\	.
8A\J	.	8f\J	.	8cc\J	.	8ee-\J	.	.	.	.	.	.	.	.	.	.	.	.	.	.	.	.	.	.	.
*	*	*Xtremolo	*	*	*	*	*	*	*	*	*	*	*	*	*	*	*	*	*	*	*	*	*	*	*
=7	=7	=7	=7	=7	=7	=7	=7	=7	=7	=7	=7	=7	=7	=7	=7	=7	=7	=7	=7	=7	=7	=7	=7	=7	=7
*custos:BB	*	*	*	*	*	*	*	*	*	*	*	*	*	*	*	*	*	*	*	*	*	*	*	*	*
8r	.	8r	.	8r	.	8r	.	2B-\	San-	.	2B-\	San-	.	2f\	San-	.	2dd\	San-	.	2.ryy	2.ryy	2.b-\	.	2dd\	.
!LO:LB:g=original	!	!LO:TX:t=P:problem=mixed beam	!	!	!	!	!	!	!	!	!	!	!	!	!	!	!	!	!	!	!	!	!	!	!
8B-\L	.	8f\L	.	8f/	.	8dd\L	.	.	.	.	.	.	.	.	.	.	.	.	.	.	.	.	.	.	.
*	*	*	*	*tremolo	*	*	*	*	*	*	*	*	*	*	*	*	*	*	*	*	*	*	*	*	*
8B-\	.	8B-/	.	8f/L	.	8dd\	.	.	.	.	.	.	.	.	.	.	.	.	.	.	.	.	.	.	.
8B-\	.	8B-/	.	8f/	.	8dd\	.	.	.	.	.	.	.	.	.	.	.	.	.	.	.	.	.	.	.
8A-X\	.	8B-/	.	8f/	.	8dd\	.	4A-X\	-cto	.	4B-\	-cto	.	4f\	-cto	.	4dd\	-cto	.	.	.	.	.	4dd\	.
8A-\J	.	8B-/J	.	8f/J	.	8dd\J	.	.	.	.	.	.	.	.	.	.	.	.	.	.	.	.	.	.	.
!	!	!	!	!	!	!LO:LB:g=original	!	!	!	!	!	!	!	!	!	!	!	!	!	!	!	!	!	!	!
*	*	*	*	*Xtremolo	*	*	*	*	*	*	*	*	*	*	*	*	*	*	*	*	*	*	*	*	*
=8	=8	=8	=8	=8	=8	=8	=8	=8	=8	=8	=8	=8	=8	=8	=8	=8	=8	=8	=8	=8	=8	=8	=8	=8	=8
8r	.	8r	.	8r	.	8r	.	(>4G\	ex	.	2B-\	ex	.	4g\	ex	.	2ee-\	ex	.	2.ryy	2.ryy	4b-/	.	4ee-\	.
8G\	.	8B-/	.	8b-/L	.	8ee-\L	.	.	.	.	.	.	.	.	.	.	.	.	.	.	.	.	.	.	.
*tremolo	*	*tremolo	*	*	*	*	*	*	*	*	*	*	*	*	*	*	*	*	*	*	*	*	*	*	*
!	!	!	!	!	!	!	!	!	!	!	!	!	!	!LO:SIC:v:s=2a-	!	!	!	!	!	!	!	!	!	!	!
8F\L	.	8B-/L	.	8a-/	.	8ee-\	.	4F\)	.	.	.	.	.	2a\	Ma-	.	.	.	.	.	.	2a-X/	.	4ee-\	.
8F\	.	8B-/	.	8a-/	.	8ee-\	.	.	.	.	.	.	.	.	.	.	.	.	.	.	.	.	.	.	.
8F\	.	8B-/	.	8a-/	.	8dd\	.	4F\	Ma-	.	4B-\	Ma-	.	.	.	.	4dd\	Ma-	.	.	.	.	.	4dd\	.
8F\J	.	8B-/J	.	8a-/J	.	8dd\J	.	.	.	.	.	.	.	.	.	.	.	.	.	.	.	.	.	.	.
!	!	!	!	!LO:LB:g=original	!	!	!	!	!	!	!	!	!	!	!	!	!	!	!	!	!	!	!	!	!
*	*	*Xtremolo	*	*	*	*	*	*	*	*	*	*	*	*	*	*	*	*	*	*	*	*	*	*	*
=9	=9	=9	=9	=9	=9	=9	=9	=9	=9	=9	=9	=9	=9	=9	=9	=9	=9	=9	=9	=9	=9	=9	=9	=9	=9
8E-\L	.	8B-/L	.	8g/L	.	8ee-\L	.	2E-\	-ri-	.	2B-\	-ri-	.	2g\	-ri-	.	2ee-\	-ri-	.	2.ryy	2.ryy	4g/	.	4ee-\	.
8E-\	.	8B-/J	.	8g/	.	16gg\L	.	.	.	.	.	.	.	.	.	.	.	.	.	.	.	.	.	.	.
.	.	.	.	.	.	16ff\JJ	.	.	.	.	.	.	.	.	.	.	.	.	.	.	.	.	.	.	.
*	*	*tremolo	*	*	*	*	*	*	*	*	*	*	*	*	*	*	*	*	*	*	*	*	*	*	*
*	*	*custos:e	*	*	*	*	*	*	*	*	*	*	*	*	*	*	*	*	*	*	*	*	*	*	*
8E-\	.	8e-\L	.	8g/	.	8ee-\L	.	.	.	.	.	.	.	.	.	.	.	.	.	.	.	2g/	.	2ee-\	.
8E-\	.	8e-\	.	8g/	.	8ee-\	.	.	.	.	.	.	.	.	.	.	.	.	.	.	.	.	.	.	.
8E-\	.	8e-\	.	8g/	.	8ee-\	.	4E-\	-a	.	4B-\	-a	.	4g\	-a	.	4ee-\	-a	.	.	.	.	.	.	.
8E-\J	.	8e-\J	.	8g/J	.	8ee-\J	.	.	.	.	.	.	.	.	.	.	.	.	.	.	.	.	.	.	.
!	!	!LO:LB:g=original	!	!	!	!	!	!	!	!	!	!	!	!	!	!	!LO:LB:g=original	!	!	!	!	!	!	!	!
=10	=10	=10	=10	=10	=10	=10	=10	=10	=10	=10	=10	=10	=10	=10	=10	=10	=10	=10	=10	=10	=10	=10	=10	=10	=10
8r	.	8r	.	8r	.	8r	.	4.c\	Vir-	.	4.c\	Vir-	.	4.g\	Vir-	.	4.ee-\	Vir-	.	2.ryy	2.ryy	2.g/	.	2ee-\	.
8C/	.	8c/	.	8g/	.	8ee-\L	.	.	.	.	.	.	.	.	.	.	.	.	.	.	.	.	.	.	.
*	*	*	*	*tremolo	*	*	*	*	*	*	*	*	*	*	*	*	*	*	*	*	*	*	*	*	*
8C/L	.	8c/L	.	8g/L	.	8ee-\	.	.	.	.	.	.	.	.	.	.	.	.	.	.	.	.	.	.	.
8C/	.	8c/	.	8g/	.	8ee-\	.	8c\	-gi-	.	8c\	-gi-	.	8g\	-gi-	.	8ee-\	-gi-	.	.	.	.	.	.	.
8C/	.	8c/	.	8g/	.	8ee-\	.	8c\	-ne	.	8c\	-ne	.	8g\	-ne	.	8ee-\	-ne	.	.	.	.	.	4ee-\	.
8C/J	.	8c/J	.	8g/J	.	8ee-\J	.	8c\	et	.	8c\	et	.	8g\	et	.	8ee-\	et	.	.	.	.	.	.	.
!	!	!	!	!	!	!	!	!LO:LB:g=original	!	!	!LO:LB:g=original	!	!	!	!	!	!	!	!	!	!	!	!	!	!
*	*	*	*	*Xtremolo	*	*	*	*	*	*	*	*	*	*	*	*	*	*	*	*	*	*	*	*	*
=11	=11	=11	=11	=11	=11	=11	=11	=11	=11	=11	=11	=11	=11	=11	=11	=11	=11	=11	=11	=11	=11	=11	=11	=11	=11
!	!	!	!	!	!	!	!	!	!	!	!	!	!	!LO:SIC:v:s=8a-	!	!	!	!	!	!	!	!	!	!	!
.	.	.	.	.	.	8qdd/	.	.	.	.	.	.	.	.	.	.	.	.	.	.	.	.	.	.	.
!	!	!	!	!	!	!	!	!	!	!	!	!	!	!	!	!	!	!	!	!	!	!LO:SIC:v:s=4a-	!	!	!
4A-X\	.	4A-X/	.	8a-/L	.	8cc\L	.	8A-X\	ho-	.	8c\	ho-	.	8a\	ho-	.	8ee-\	ho-	.	2.ryy	2.ryy	4a/	.	4ee-\	.
!	!	!	!	!	!	!	!	!	!	!	!	!	!	!LO:SIC:v:s=8a-	!	!	!	!	!	!	!	!	!	!	!
.	.	.	.	16g/L	.	16b-\L	.	8A-\	-mo	.	8c\	-mo	.	8a\	-mo	.	8ee-\	-mo	.	.	.	.	.	.	.
.	.	.	.	16f/JJ	.	16a-\JJ	.	.	.	.	.	.	.	.	.	.	.	.	.	.	.	.	.	.	.
4B-\	.	4B-/	.	4e-/	.	4g/	.	4B-\	fa-	.	4B-\	fa-	.	4g\	fa-	.	4ee-\	fa-	.	.	.	4g/	.	4ee-\	.
4BB-/	.	4B-/	.	4d/	.	4f/T	.	4BB-/	-ctuſ	.	4B-\	-ctus	.	4f\	-ctus	.	4dd\	-ctus	.	.	.	4f/	.	4dd\	.
!	!	!	!	!	!	!	!	!	!	!	!	!	!	!LO:LB:g=original	!	!	!	!	!	!	!	!	!	!	!
=12	=12	=12	=12	=12	=12	=12	=12	=12	=12	=12	=12	=12	=12	=12	=12	=12	=12	=12	=12	=12	=12	=12	=12	=12	=12
!	!	!	!	!	!	!LO:TX:t=P:problem=mixed beam	!	!	!	!	!	!	!	!	!	!	!	!	!	!	!	!	!	!	!
4E-\	.	4E-/	.	4e-/	.	8e-/L	.	4E-/	eſt	.	4B-\	eſt	.	4g\	est	.	4ee-\	est	.	2.ryy	2.ryy	4g/	.	4ee-\	.
.	.	.	.	.	.	8bb-\	.	.	.	.	.	.	.	.	.	.	.	.	.	.	.	.	.	.	.
4r	.	4r	.	4r	.	8ff#X\	.	4r	.	.	4r	.	.	4r	.	.	4r	.	.	.	.	4r	.	4r	.
.	.	.	.	.	.	8gg\	.	.	.	.	.	.	.	.	.	.	.	.	.	.	.	.	.	.	.
4r	.	4G/	.	4b-/	.	8dd\	.	4r	.	.	4r	.	.	4r	.	.	4r	.	.	.	.	4r	.	4r	.
.	.	.	.	.	.	8ee-\J	.	.	.	.	.	.	.	.	.	.	.	.	.	.	.	.	.	.	.
=13	=13	=13	=13	=13	=13	=13	=13	=13	=13	=13	=13	=13	=13	=13	=13	=13	=13	=13	=13	=13	=13	=13	=13	=13	=13
!	!	!	!	!	!	!	!	!LO:TX:a:t=4	!	!	!	!	!	!	!	!	!	!	!	!	!	!	!	!	!
1.r	.	4A-X/	.	4e-/	.	8cc\L	.	0.r	.	.	0.r	.	.	0.r	.	.	0.r	.	.	2.ryy	2.ryy	0.r	.	0.r	.
.	.	.	.	.	.	8een\	.	.	.	.	.	.	.	.	.	.	.	.	.	.	.	.	.	.	.
.	.	4r	.	4r	.	8ff\	.	.	.	.	.	.	.	.	.	.	.	.	.	.	.	.	.	.	.
.	.	.	.	.	.	8aa-\	.	.	.	.	.	.	.	.	.	.	.	.	.	.	.	.	.	.	.
.	.	4An/	.	4f/	.	8cc\	.	.	.	.	.	.	.	.	.	.	.	.	.	.	.	.	.	.	.
.	.	.	.	.	.	8ee-X\J	.	.	.	.	.	.	.	.	.	.	.	.	.	.	.	.	.	.	.
=14	=14	=14	=14	=14	=14	=14	=14	=14	=14	=14	=14	=14	=14	=14	=14	=14	=14	=14	=14	=14	=14	=14	=14	=14	=14
.	.	4B-/	.	4f/	.	8dd\L	.	.	.	.	.	.	.	.	.	.	.	.	.	2.ryy	2.ryy	.	.	.	.
.	.	.	.	.	.	8ff\	.	.	.	.	.	.	.	.	.	.	.	.	.	.	.	.	.	.	.
.	.	4r	.	4r	.	8ee-\	.	.	.	.	.	.	.	.	.	.	.	.	.	.	.	.	.	.	.
.	.	.	.	.	.	8dd\	.	.	.	.	.	.	.	.	.	.	.	.	.	.	.	.	.	.	.
.	.	4r	.	4r	.	8cc\	.	.	.	.	.	.	.	.	.	.	.	.	.	.	.	.	.	.	.
.	.	.	.	.	.	8b-\J	.	.	.	.	.	.	.	.	.	.	.	.	.	.	.	.	.	.	.
=15	=15	=15	=15	=15	=15	=15	=15	=15	=15	=15	=15	=15	=15	=15	=15	=15	=15	=15	=15	=15	=15	=15	=15	=15	=15
4r	.	4B-/	.	8r	.	4a-/	.	.	.	.	.	.	.	.	.	.	.	.	.	2.ryy	2.ryy	.	.	.	.
.	.	.	.	8f/L	.	.	.	.	.	.	.	.	.	.	.	.	.	.	.	.	.	.	.	.	.
4r	.	4r	.	8e-/	.	4r	.	.	.	.	.	.	.	.	.	.	.	.	.	.	.	.	.	.	.
.	.	.	.	8d/	.	.	.	.	.	.	.	.	.	.	.	.	.	.	.	.	.	.	.	.	.
4BB-/	.	8d\L	.	8f/	.	4aa-\	.	.	.	.	.	.	.	.	.	.	.	.	.	.	.	.	.	.	.
.	.	8f\J	.	8d/J	.	.	.	.	.	.	.	.	.	.	.	.	.	.	.	.	.	.	.	.	.
=16	=16	=16	=16	=16	=16	=16	=16	=16	=16	=16	=16	=16	=16	=16	=16	=16	=16	=16	=16	=16	=16	=16	=16	=16	=16
4E-\	.	4e-\	.	4e-/	.	16gg\LL	.	.	.	.	.	.	.	.	.	.	.	.	.	2.ryy	2.ryy	.	.	.	.
.	.	.	.	.	.	16dd\	.	.	.	.	.	.	.	.	.	.	.	.	.	.	.	.	.	.	.
.	.	.	.	.	.	16ee-\	.	.	.	.	.	.	.	.	.	.	.	.	.	.	.	.	.	.	.
.	.	.	.	.	.	16a-\JJ	.	.	.	.	.	.	.	.	.	.	.	.	.	.	.	.	.	.	.
4B-\	.	4B-/	.	4e-/	.	4g/	.	.	.	.	.	.	.	.	.	.	.	.	.	.	.	.	.	.	.
4BB-/	.	4B-/	.	4d/	.	4f/T	.	.	.	.	.	.	.	.	.	.	.	.	.	.	.	.	.	.	.
*Xtremolo	*	*	*	*	*	*	*	*	*	*	*	*	*	*	*	*	*	*	*	*	*	*	*	*	*
=17	=17	=17	=17	=17	=17	=17	=17	=17	=17	=17	=17	=17	=17	=17	=17	=17	=17	=17	=17	=17	=17	=17	=17	=17	=17
!	!	!LO:TX:t=P:problem=mixed beam	!	!	!	!LO:TX:t=P:problem=mixed beam	!	!	!	!	!	!	!	!	!	!	!	!	!	!	!	!	!	!	!
8E-\L	.	8B-/L	.	8e-/L	.	8e-/L	.	4r	.	.	4r	.	.	4r	.	.	4r	.	.	2.ryy	2.ryy	4r	.	4r	.
*	*	*	*	*	*	*custos:b	*	*	*	*	*	*	*	*	*	*	*	*	*	*	*	*	*	*	*
8E-\J	.	8e-\J	.	8g/	.	8b-\J	.	.	.	.	.	.	.	.	.	.	.	.	.	.	.	.	.	.	.
*tremolo	*	*	*	*	*	*	*	*	*	*	*	*	*	*	*	*	*	*	*	*	*	*	*	*	*
!	!	!	!	!	!	!LO:LB:g=original	!	!	!	!	!	!	!	!	!	!	!	!	!	!	!	!	!	!	!
8E-\L	.	8e-\L	.	8g/	.	8b-\L	.	4E-\	Cru-	.	4e-\	Cru-	.	4g\	Cru-	.	4b-\	Cru-	.	.	.	4b-/	.	4gg\	.
8E-\	.	8e-\	.	8g/	.	8b-\	.	.	.	.	.	.	.	.	.	.	.	.	.	.	.	.	.	.	.
8E-\	.	8e-\	.	8g/	.	8b-\	.	4E-\	-ci-	.	4e-\	-ci-	.	4g\	-ci-	.	4b-\	-ci-	.	.	.	4b-/	.	4gg\	.
8E-\J	.	8e-\J	.	8g/J	.	8b-\J	.	.	.	.	.	.	.	.	.	.	.	.	.	.	.	.	.	.	.
!LO:LB:g=original	!	!	!	!	!	!	!	!	!	!	!	!	!	!	!	!	!	!	!	!	!	!	!	!	!
=18	=18	=18	=18	=18	=18	=18	=18	=18	=18	=18	=18	=18	=18	=18	=18	=18	=18	=18	=18	=18	=18	=18	=18	=18	=18
8r	.	8r	.	8r	.	8r	.	2En\	-fi-	.	2c\	-fi-	.	2g\	-fi-	.	2b-\	-fi-	.	2.ryy	2.ryy	2.b-/	.	2.gg\	.
8En\	.	8c\	.	8b-\	.	8gg\L	.	.	.	.	.	.	.	.	.	.	.	.	.	.	.	.	.	.	.
*	*	*	*	*tremolo	*	*	*	*	*	*	*	*	*	*	*	*	*	*	*	*	*	*	*	*	*
8E\L	.	8c\L	.	8b-\L	.	8gg\	.	.	.	.	.	.	.	.	.	.	.	.	.	.	.	.	.	.	.
8E\	.	8c\	.	8b-\	.	8gg\	.	.	.	.	.	.	.	.	.	.	.	.	.	.	.	.	.	.	.
8E\	.	8c\	.	8b-\	.	8gg\	.	4E\	-xus	.	4c\	-xus	.	4g\	-xus	.	4b-\	-xus	.	.	.	.	.	.	.
8E\J	.	8c\J	.	8b-\J	.	8gg\J	.	.	.	.	.	.	.	.	.	.	.	.	.	.	.	.	.	.	.
*Xtremolo	*	*	*	*Xtremolo	*	*	*	*	*	*	*	*	*	*	*	*	*	*	*	*	*	*	*	*	*
=19	=19	=19	=19	=19	=19	=19	=19	=19	=19	=19	=19	=19	=19	=19	=19	=19	=19	=19	=19	=19	=19	=19	=19	=19	=19
8F\L	.	8r	.	8b-/L	.	8gg\L	.	8F\	e-	.	8c\	e-	.	8g\	e-	.	8b-\	e-	.	2.ryy	2.ryy	4b-/	.	4gg\	.
8F\	.	8c\	.	8b-/	.	8gg\J	.	8F\	-ti-	.	8c\	-ti-	.	8g\	-ti-	.	8b-\	-ti-	.	.	.	.	.	.	.
!	!	!	!	!	!	!	!	!	!	!	!	!	!	!	!	!	!LO:SIC:v:t=sic&colon;s=4a-	!	!	!	!	!	!	!	!
8A\	.	8c\L	.	8a-/	.	8ff\L	.	4A-X\	-am	.	4c\	-am	.	4f\	-am	.	4a\	-am	.	.	.	2a-X/	.	2ff\	.
8A\	.	8c\	.	8a-/	.	8ff\	.	.	.	.	.	.	.	.	.	.	.	.	.	.	.	.	.	.	.
!	!	!	!	!	!	!	!	!	!	!	!	!	!	!	!	!	!LO:SIC:v:t=sic&colon;s=4a-	!	!	!	!	!	!	!	!
8F\	.	8c\	.	8a-/	.	8ff\	.	4F\	pro	.	4c\	pro	.	4f\	pro	.	4a\	pro	.	.	.	.	.	.	.
8F\J	.	8c\J	.	8a-/J	.	8ff\J	.	.	.	.	.	.	.	.	.	.	.	.	.	.	.	.	.	.	.
!	!	!	!	!	!	!	!	!	!	!	!	!	!	!	!	!	!	!	!	!	!	!LO:LB:g=original	!	!LO:LB:g=original	!
=20	=20	=20	=20	=20	=20	=20	=20	=20	=20	=20	=20	=20	=20	=20	=20	=20	=20	=20	=20	=20	=20	=20	=20	=20	=20
!	!	!	!	!	!	!	!	!	!	!	!	!	!	!	!	!	!LO:SIC:v:t=sic&colon;s=4a-	!	!	!	!	!	!	!	!
4c\	.	4c\	.	4a-/	.	4ff\	.	4c\	no-	.	4c\	no-	.	4f\	no-	.	4a\	no-	.	2.ryy	2.ryy	4a-X/	.	4ff\	.
4C/	.	4c\	.	4g/	.	8een\L	.	4C/	-biſ	.	4c\	-bis	.	4en\	-bis	.	4g\	-bis	.	.	.	4g/	.	4een\	.
.	.	.	.	.	.	8gg\	.	.	.	.	.	.	.	.	.	.	.	.	.	.	.	.	.	.	.
4r	.	4r	.	4r	.	8ee\	.	4r	.	.	4r	.	.	4r	.	.	4r	.	.	.	.	4r	.	4r	.
.	.	.	.	.	.	8cc\J	.	.	.	.	.	.	.	.	.	.	.	.	.	.	.	.	.	.	.
=21	=21	=21	=21	=21	=21	=21	=21	=21	=21	=21	=21	=21	=21	=21	=21	=21	=21	=21	=21	=21	=21	=21	=21	=21	=21
!	!	!	!	!	!	!LO:TX:t=P:problem=mixed beam	!	!	!	!	!	!	!	!	!	!	!	!	!	!	!	!	!	!	!
2.r	.	2.r	.	2.r	.	8g/L	.	2.r	.	.	2.r	.	.	2.r	.	.	2.r	.	.	2.ryy	2.ryy	2.r	.	2.r	.
!	!	!	!	!	!	!LO:SIC:v:s=8een	!	!	!	!	!	!	!	!	!	!	!	!	!	!	!	!	!	!	!
.	.	.	.	.	.	8ee-\	.	.	.	.	.	.	.	.	.	.	.	.	.	.	.	.	.	.	.
!	!	!LO:TX:a:t=1	!	!	!	!	!	!	!	!	!	!	!	!	!	!	!	!	!	!	!	!	!	!	!
.	.	.	.	.	.	8cc\	.	.	.	.	.	.	.	.	.	.	.	.	.	.	.	.	.	.	.
.	.	.	.	.	.	8g\	.	.	.	.	.	.	.	.	.	.	.	.	.	.	.	.	.	.	.
.	.	.	.	.	.	8en\	.	.	.	.	.	.	.	.	.	.	.	.	.	.	.	.	.	.	.
.	.	.	.	.	.	8g\J	.	.	.	.	.	.	.	.	.	.	.	.	.	.	.	.	.	.	.
!	!	!LO:LB:g=original	!	!	!	!	!	!	!	!	!	!	!	!	!	!	!	!	!	!	!	!	!	!	!
=22	=22	=22	=22	=22	=22	=22	=22	=22	=22	=22	=22	=22	=22	=22	=22	=22	=22	=22	=22	=22	=22	=22	=22	=22	=22
!	!	!	!	!	!	!LO:TX:t=P:problem=mixed beam	!	!	!	!	!	!	!	!	!	!	!	!	!	!	!	!	!	!	!
8r	.	8c\L	.	8g/L	.	8c/L	.	2B-\	e-	.	2c\	e-	.	2g\	Pon-	.	2een\	Pon-	.	2.ryy	2.ryy	2.g/	.	2.een\	.
8c\L	.	8c\	.	8g/	.	8een\	.	.	.	.	.	.	.	.	.	.	.	.	.	.	.	.	.	.	.
8c\	.	8c\	.	8g/	.	8ee\	.	.	.	.	.	.	.	.	.	.	.	.	.	.	.	.	.	.	.
8c\	.	8c\	.	8g/	.	8ee\	.	.	.	.	.	.	.	.	.	.	.	.	.	.	.	.	.	.	.
8B-\	.	8c\	.	8g/	.	8ee\	.	4B-\	-ti-	.	4c\	-ti-	.	4g\	-ti-	.	4ee\	-ti-	.	.	.	.	.	.	.
8B-\J	.	8c\J	.	8g/J	.	8ee\J	.	.	.	.	.	.	.	.	.	.	.	.	.	.	.	.	.	.	.
!	!	!	!	!	!	!	!	!	!	!	!	!	!	!	!	!	!LO:LB:g=original	!	!	!	!	!	!	!	!
*	*	*Xtremolo	*	*	*	*	*	*	*	*	*	*	*	*	*	*	*	*	*	*	*	*	*	*	*
=23	=23	=23	=23	=23	=23	=23	=23	=23	=23	=23	=23	=23	=23	=23	=23	=23	=23	=23	=23	=23	=23	=23	=23	=23	=23
*	*	*tremolo	*	*tremolo	*	*	*	*	*	*	*	*	*	*	*	*	*	*	*	*	*	*	*	*	*
8r	.	8c\L	.	8cc\L	.	8ff\L	.	2A-X\	-am	.	2c\	-am	.	2cc\	-o	.	2ff\	-o	.	2.ryy	2.ryy	2.cc\	.	2.ff\	.
8A-X\	.	8c\J	.	8cc\	.	8ff\	.	.	.	.	.	.	.	.	.	.	.	.	.	.	.	.	.	.	.
*tremolo	*	*	*	*	*	*	*	*	*	*	*	*	*	*	*	*	*	*	*	*	*	*	*	*	*
8A-\L	.	8f\L	.	8cc\	.	8ff\	.	.	.	.	.	.	.	.	.	.	.	.	.	.	.	.	.	.	.
8A-\	.	8f\	.	8cc\	.	8ff\	.	.	.	.	.	.	.	.	.	.	.	.	.	.	.	.	.	.	.
*	*	*	*	*	*	*	*	*custos:A	*	*	*	*	*	*	*	*	*	*	*	*	*	*	*	*	*
8A-\	.	8f\	.	8cc\	.	8ff\	.	4A-\	pro	.	4c\	pro	.	4cc\	Pi-	.	4ff\	Pi-	.	.	.	.	.	.	.
8A-\J	.	8f\J	.	8cc\J	.	8ff\J	.	.	.	.	.	.	.	.	.	.	.	.	.	.	.	.	.	.	.
!	!	!	!	!	!	!	!	!LO:LB:g=original	!	!	!	!	!	!	!	!	!	!	!	!	!	!	!	!	!
=24	=24	=24	=24	=24	=24	=24	=24	=24	=24	=24	=24	=24	=24	=24	=24	=24	=24	=24	=24	=24	=24	=24	=24	=24	=24
8G\L	.	8d\L	.	8bn\L	.	8ff\L	.	2.G\	no-	.	2.d\	no-	.	2.bn\	-la-	.	(>2.ff\	-la-	.	2.ryy	2.ryy	2.bn\	.	2.ff\	.
8G\	.	8d\	.	8bn\	.	8ff\	.	.	.	.	.	.	.	.	.	.	.	.	.	.	.	.	.	.	.
8G\	.	8d\	.	8bn\	.	8ff\	.	.	.	.	.	.	.	.	.	.	.	.	.	.	.	.	.	.	.
8G\	.	8d\	.	8bn\	.	8ff\	.	.	.	.	.	.	.	.	.	.	.	.	.	.	.	.	.	.	.
8G\	.	8d\	.	8bn\	.	8ff\	.	.	.	.	.	.	.	.	.	.	.	.	.	.	.	.	.	.	.
8G\J	.	8d\J	.	8bn\J	.	8ff\J	.	.	.	.	.	.	.	.	.	.	.	.	.	.	.	.	.	.	.
!	!	!	!	!	!	!	!	!	!	!	!LO:LB:g=original	!	!	!	!	!	!	!	!	!	!	!	!	!	!
*Xtremolo	*	*	*	*	*	*	*	*	*	*	*	*	*	*	*	*	*	*	*	*	*	*	*	*	*
=25	=25	=25	=25	=25	=25	=25	=25	=25	=25	=25	=25	=25	=25	=25	=25	=25	=25	=25	=25	=25	=25	=25	=25	=25	=25
8r	.	8g\L	.	8cc\L	.	8ee-X\L	.	2C/	-biſ	.	2.c\	.	.	2cc\	-to	.	2.ee-\)	.	.	2.ryy	2.ryy	2.cc\	.	2.ee-X\	.
!LO:TX:t=P:problem=mixed beam	!	!	!	!	!	!	!	!	!	!	!	!	!	!	!	!	!	!	!	!	!	!	!	!	!
8c\L	.	8g\	.	8cc\	.	8ee-\	.	.	.	.	.	.	.	.	.	.	.	.	.	.	.	.	.	.	.
8c\	.	8g\	.	8cc\	.	8ee-\	.	.	.	.	.	.	.	.	.	.	.	.	.	.	.	.	.	.	.
8c\	.	8g\	.	8cc\	.	8ee-\	.	.	.	.	.	.	.	.	.	.	.	.	.	.	.	.	.	.	.
8C/	.	8g\	.	8cc\	.	8ee-\	.	4C/	pro	.	.	.	.	4cc\	Pi-	.	.	.	.	.	.	.	.	.	.
*	*	*	*	*	*	*custos:ee	*	*	*	*	*	*	*	*	*	*	*	*	*	*	*	*	*	*	*
8C/J	.	8g\J	.	8cc\J	.	8ee-\J	.	.	.	.	.	.	.	.	.	.	.	.	.	.	.	.	.	.	.
*	*	*	*	*Xtremolo	*	*	*	*	*	*	*	*	*	*	*	*	*	*	*	*	*	*	*	*	*
=26	=26	=26	=26	=26	=26	=26	=26	=26	=26	=26	=26	=26	=26	=26	=26	=26	=26	=26	=26	=26	=26	=26	=26	=26	=26
4G\	.	4g\	.	4cc\	.	4ee-\T	.	4G\	no-	.	4c\	.	.	4g\	-la-	.	4ee-\	.	.	2.ryy	2.ryy	4cc\	.	4ee-\	.
4GG/	.	4g\	.	4bn\	.	4dd\	.	4GG/	-biſ	.	4Bn\	-bis	.	4g\	-to	.	4dd\	-to	.	.	.	4bn\	.	4dd\	.
4r	.	4r	.	4r	.	4r	.	4r	.	.	4r	.	.	4r	.	.	4r	.	.	.	.	4r	.	4r	.
!LO:LB:g=original	!	!	!	!	!	!	!	!	!	!	!	!	!	!LO:LB:g=original	!	!	!	!	!	!	!	!	!	!	!
=27	=27	=27	=27	=27	=27	=27	=27	=27	=27	=27	=27	=27	=27	=27	=27	=27	=27	=27	=27	=27	=27	=27	=27	=27	=27
4C/	.	4c\	.	8r	.	8r	.	4C/	ſub	.	4c\	ſub	.	4g\	sub	.	4ee-\	sub	.	2.ryy	2.ryy	4cc\	.	4ee-\	.
.	.	.	.	8g/	.	8ee-\	.	.	.	.	.	.	.	.	.	.	.	.	.	.	.	.	.	.	.
4r	.	4r	.	8f/L	.	8dd\L	.	4r	.	.	4r	.	.	4r	.	.	4r	.	.	.	.	4r	.	4r	.
.	.	.	.	8e-/	.	8cc\	.	.	.	.	.	.	.	.	.	.	.	.	.	.	.	.	.	.	.
4r	.	4r	.	8d/	.	8bn\	.	4r	.	.	4r	.	.	4r	.	.	4r	.	.	.	.	4r	.	4r	.
.	.	.	.	8e-/J	.	8cc\J	.	.	.	.	.	.	.	.	.	.	.	.	.	.	.	.	.	.	.
=28	=28	=28	=28	=28	=28	=28	=28	=28	=28	=28	=28	=28	=28	=28	=28	=28	=28	=28	=28	=28	=28	=28	=28	=28	=28
4E-\	.	4g\	.	8r	.	8r	.	8E-\	Pon-	.	8c\	Pon-	.	8g\	Pon-	.	8cc\	Pon-	.	2.ryy	2.ryy	4cc\	.	4ee-\	.
.	.	.	.	8g/	.	8ee-\	.	8E-\	-ti-	.	8c\	-ti-	.	8g\	-ti-	.	8cc\	-ti-	.	.	.	.	.	.	.
4E-\	.	4r	.	8f/L	.	8dd\L	.	4E-\	-o	.	4c\	-o	.	4g\	-o	.	4cc\	-o	.	.	.	4cc\	.	4ee-\	.
.	.	.	.	8e-/	.	8cc\	.	.	.	.	.	.	.	.	.	.	.	.	.	.	.	.	.	.	.
4r	.	4r	.	8d/	.	8bn\	.	4r	.	.	4r	.	.	4r	.	.	4r	.	.	.	.	4r	.	4r	.
.	.	.	.	8e-/J	.	8cc\J	.	.	.	.	.	.	.	.	.	.	.	.	.	.	.	.	.	.	.
=29	=29	=29	=29	=29	=29	=29	=29	=29	=29	=29	=29	=29	=29	=29	=29	=29	=29	=29	=29	=29	=29	=29	=29	=29	=29
*	*	*	*	*	*	*	*	*	*ij	*	*	*	*	*	*ij	*	*	*	*	*	*	*	*	*	*
4F\	.	4c/	.	8r	.	8r	.	8F\	Pon-	.	8e-\	Pon-	.	8a-X\	Pon-	.	8cc\	Pon-	.	2.ryy	2.ryy	8cc\L	.	8ee-\L	.
!	!	!	!	!LO:LB:g=original	!	!	!	!	!	!	!	!	!	!	!	!	!	!	!	!	!	!	!	!	!
.	.	.	.	8c/L	.	8ee-\	.	8F\	-ti-	.	8e-\	-ti-	.	8a-\	-ti-	.	8cc\	-ti-	.	.	.	8cc\J	.	8ee-\J	.
4r	.	4r	.	8f/	.	8dd\L	.	4F\	-o	.	4e-\	-o	.	4a-\	-o	.	4cc\	-o	.	.	.	4cc\	.	4ee-\	.
*	*	*	*	*	*	*	*	*	*Xij	*	*	*	*	*	*Xij	*	*	*	*	*	*	*	*	*	*
.	.	.	.	8e-/	.	8cc\	.	.	.	.	.	.	.	.	.	.	.	.	.	.	.	.	.	.	.
4F#X\	.	4an\	.	8d/	.	8bn\	.	4F#X\	Pi-	.	4e-\	Pi-	.	4an\	Pi-	.	4cc\	Pi-	.	.	.	4cc\	.	4ee-\	.
.	.	.	.	8e-/J	.	8cc\J	.	.	.	.	.	.	.	.	.	.	.	.	.	.	.	.	.	.	.
=30	=30	=30	=30	=30	=30	=30	=30	=30	=30	=30	=30	=30	=30	=30	=30	=30	=30	=30	=30	=30	=30	=30	=30	=30	=30
4G\	.	4g\	.	4e-/	.	4cc\	.	4G\	-la-	.	4e-\	-la-	.	4g 4d\	-la-	.	4cc\	-la-	.	2.ryy	2.ryy	4cc\	.	4ee-\	.
4GG/	.	4g\	.	4d/	.	4bn\	.	4GG/	-to	.	4d\	-to	.	4g\	-to	.	4bn\	-to	.	.	.	4bn\	.	4dd\	.
4r	.	4r	.	4r	.	4r	.	4r	.	.	4r	.	.	4r	.	.	4r	.	.	.	.	4r	.	4r	.
=31	=31	=31	=31	=31	=31	=31	=31	=31	=31	=31	=31	=31	=31	=31	=31	=31	=31	=31	=31	=31	=31	=31	=31	=31	=31
2.r	.	2.r	.	2.r	.	4g/	.	2.r	.	.	2.r	.	.	2.r	.	.	(>4g\	paſ-	.	2.ryy	2.ryy	2.r	.	2.r	.
!	!	!	!	!	!	!	!	!LO:TX:a:t=1	!	!	!	!	!	!	!	!	!	!	!	!	!	!	!	!	!
.	.	.	.	.	.	4an/	.	.	.	.	.	.	.	.	.	.	4an\)	.	.	.	.	.	.	.	.
.	.	.	.	.	.	4bn/	.	.	.	.	.	.	.	.	.	.	4bn\	-sus	.	.	.	.	.	.	.
=32	=32	=32	=32	=32	=32	=32	=32	=32	=32	=32	=32	=32	=32	=32	=32	=32	=32	=32	=32	=32	=32	=32	=32	=32	=32
8r	.	8r	.	8r	.	8r	.	2F#X\	et	.	2e-\	et	.	2an\	Paſ-	.	2cc\	et	.	2.ryy	2.ryy	2cc\	.	2ee-X\	.
8F#X\	.	8An/	.	8e-/	.	8cc\	.	.	.	.	.	.	.	.	.	.	.	.	.	.	.	.	.	.	.
*tremolo	*	*	*	*tremolo	*	*	*	*	*	*	*	*	*	*	*	*	*	*	*	*	*	*	*	*	*
8F#\L	.	8A/L	.	8e-/L	.	8cc\L	.	.	.	.	.	.	.	.	.	.	.	.	.	.	.	.	.	.	.
8F#\	.	8A/	.	8e-/	.	8cc\	.	.	.	.	.	.	.	.	.	.	.	.	.	.	.	.	.	.	.
*	*	*	*	*	*	*	*	*	*	*	*	*	*	*	*	*	*custos:cc	*	*	*	*	*	*	*	*
8F#\	.	8A/	.	8e-/	.	8cc\	.	4F#\	ſe-	.	4e-\	ſe-	.	4a\	-sus	.	4cc\	se-	.	.	.	4cc\	.	4ee-\	.
8F#\J	.	8A/J	.	8e-/J	.	8cc\J	.	.	.	.	.	.	.	.	.	.	.	.	.	.	.	.	.	.	.
*	*	*	*	*Xtremolo	*	*	*	*	*	*	*	*	*	*	*	*	*	*	*	*	*	*	*	*	*
*Xtremolo	*	*	*	*	*	*	*	*	*	*	*	*	*	*	*	*	*	*	*	*	*	*	*	*	*
!	!	!	!	!	!	!	!	!	!	!	!	!	!	!	!	!	!LO:PB:g=original	!	!	!	!	!	!	!	!
=33	=33	=33	=33	=33	=33	=33	=33	=33	=33	=33	=33	=33	=33	=33	=33	=33	=33	=33	=33	=33	=33	=33	=33	=33	=33
8r	.	8r	.	8d/L	.	8cc\L	.	2G\	-pul-	.	2d\	-pul-	.	2g\	et	.	2cc\	-pul-	.	2.ryy	2.ryy	2cc\	.	2dd\	.
8G\	.	8G/	.	8d/	.	8cc\	.	.	.	.	.	.	.	.	.	.	.	.	.	.	.	.	.	.	.
!LO:TX:t=P:problem=mixed beam	!	!	!	!	!	!	!	!	!	!	!	!	!	!	!	!	!	!	!	!	!	!	!	!	!
8G\L	.	8G/L	.	8d/	.	8cc\	.	.	.	.	.	.	.	.	.	.	.	.	.	.	.	.	.	.	.
8G\	.	8G/	.	8d/	.	8cc\	.	.	.	.	.	.	.	.	.	.	.	.	.	.	.	.	.	.	.
8GG\	.	8G/	.	8d/	.	8bn\	.	4G\	-tus	.	4d\	-tus	.	4g\	se-	.	4bn\	-tus	.	.	.	4bn\	.	4dd\	.
8GG\J	.	8G/J	.	8d/J	.	8b\J	.	.	.	.	.	.	.	.	.	.	.	.	.	.	.	.	.	.	.
*	*	*Xtremolo	*	*	*	*	*	*	*	*	*	*	*	*	*	*	*	*	*	*	*	*	*	*	*
!	!	!	!	!	!	!	!	!LO:LB:g=original	!	!	!	!	!	!	!	!	!	!	!	!	!	!	!	!	!
=34	=34	=34	=34	=34	=34	=34	=34	=34	=34	=34	=34	=34	=34	=34	=34	=34	=34	=34	=34	=34	=34	=34	=34	=34	=34
!	!	!	!	!	!	!	!LO:DY:a:t=pp.	!	!	!	!	!	!	!	!	!	!	!	!	!	!	!	!	!	!
4C/	.	4c/	.	4e-/	.	4cc\	pp	4C/	eſt	.	4e-\	eſt	.	4g\	-pul-	.	4cc\	est	.	2.ryy	2.ryy	4cc\	.	4cc\	.
!	!LO:DY:a:t=pp&colon;	!	!	!	!LO:DY:a:t=pp.	!	!	!	!	!	!	!	!	!	!	!LO:DY:a:t=pp.	!	!	!LO:DY:a:t=pp.	!	!	!	!	!	!
4C/	pp	2G/	.	2en/	pp	8gg\L	.	4C/	et	.	4en\	et	.	4g\	-tus	pp	4b-X\	et	pp	.	.	4r	.	4r	.
.	.	.	.	.	.	8een\	.	.	.	.	.	.	.	.	.	.	.	.	.	.	.	.	.	.	.
4C/	.	.	.	.	.	8cc\	.	4C/	ſe-	.	4e\	ſe-	.	4g\	se-	.	4b-\	se-	.	.	.	4r	.	4r	.
.	.	.	.	.	.	8b-X\J	.	.	.	.	.	.	.	.	.	.	.	.	.	.	.	.	.	.	.
=35	=35	=35	=35	=35	=35	=35	=35	=35	=35	=35	=35	=35	=35	=35	=35	=35	=35	=35	=35	=35	=35	=35	=35	=35	=35
2.C/	.	2.c/	.	4f/	.	8a-/L	.	2C/	-pul-	.	2c\	-pul-	.	2f\	-pul-	.	2a-X\	-pul-	.	2.ryy	2.ryy	1.r	.	1.r	.
.	.	.	.	.	.	8cc/	.	.	.	.	.	.	.	.	.	.	.	.	.	.	.	.	.	.	.
.	.	.	.	4a-/	.	8ff/	.	.	.	.	.	.	.	.	.	.	.	.	.	.	.	.	.	.	.
.	.	.	.	.	.	8een/	.	.	.	.	.	.	.	.	.	.	.	.	.	.	.	.	.	.	.
.	.	.	.	4f/	.	8ff/	.	4C/	-tus	.	4c\	-tuſ	.	4f\	-tus	.	4a-\	-tus	.	.	.	.	.	.	.
.	.	.	.	.	.	8a-/J	.	.	.	.	.	.	.	.	.	.	.	.	.	.	.	.	.	.	.
!	!	!	!	!	!	!LO:LB:g=original	!	!	!	!	!	!	!	!	!	!	!	!	!	!	!	!	!	!	!
=36	=36	=36	=36	=36	=36	=36	=36	=36	=36	=36	=36	=36	=36	=36	=36	=36	=36	=36	=36	=36	=36	=36	=36	=36	=36
!	!	!	!	!	!	!	!	!	!	!	!	!	!	!	!	!	!LO:SIC:v:t=sic&colon;s=4a-	!	!	!	!	!	!	!	!
4C/	.	4c/	.	4f/	.	4a-/	.	2C/	eſt.	.	2.c\	eſt.	.	(>4f\	est.	.	(>4a\	est.	.	2.ryy	2.ryy	.	.	.	.
4CC/	.	4C/	.	4en/	.	4g/	.	.	.	.	.	.	.	4en\)	.	.	4g\)	.	.	.	.	.	.	.	.
4r	.	4r	.	4r	.	4r	.	4r	.	.	.	.	.	4r	.	.	4r	.	.	.	.	.	.	.	.
==	==	==	==	==	==	==	==	==	==	==	==	==	==	==	==	==	==	==	==	==	==	==	==	==	==
*-	*-	*-	*-	*-	*-	*-	*-	*-	*-	*-	*-	*-	*-	*-	*-	*-	*-	*-	*-	*-	*-	*-	*-	*-	*-
!!!system-decoration: [(g1)][(g2)][(g3)][(g4)]
!!!RDF**kern: > = above
!!!RDF**kern: < = below
!!!ENC: Andrzej Borzym
!!!END: 2020-09-22
!!!EED: Antoni Szymański
!!!EEV: 2022-01-31
